X:178
%%etbk:tnset id:57,pos:2,rep:3x,ant:
%%etbk:tnset id:257,pos:7,rep:3x,ant:
%%etbk:tnset id:259,pos:2,rep:3x-Stop,ant:
%%etbk:tnset id:265,pos:3,rep:2x,ant:Uebergang zu Man of the House: G -> F# -> E
%%etbk:wsite http://www.thesession.org/tunes/display/1343
%%etbk:pldat 2016-06-23T18:15,2016-06-22T16:31,2016-06-21T15:57,2016-05-05T11:51,2016-05-04T15:00,2016-05-03T16:55,2016-05-02T18:35,2016-04-09T15:20,2016-04-08T18:45,2016-04-07T16:10,2016-04-05T16:04,2016-04-02T14:17,2016-03-31T15:56,2016-03-30T16:33,2016-03-28T15:00,2016-03-09T16:49,2016-03-08T15:17,2016-02-29T19:36,2015-12-11T17:56,2015-12-10T18:42,2015-12-10T17:54,2015-12-09T15:34,2015-12-08T15:04,2015-12-07T18:20,2015-12-06T13:49,2015-12-03T18:37,2015-12-02T16:31,2015-12-01T15:51,2015-11-04T16:21,2015-11-03T17:23,2015-11-02T18:02,2015-10-28T15:26,2015-10-27T17:26,2015-10-25T14:43,2015-10-21T16:22,2015-10-08T18:50,2015-10-07T16:58,2015-10-05T18:22,2015-09-30T16:09,2015-09-09T17:21,2015-09-06T15:05,2015-06-24T19:01,2015-06-22T18:58,2015-05-28T19:02,2015-04-22T16:45,2015-03-13T18:18,2015-03-09T17:55,2015-03-04T16:28,2015-02-14T14:18,2014-11-06T18:04,2014-11-04T16:27,2014-10-30T18:45,2014-10-29T15:30,2014-10-28T15:59,2014-10-27T18:50,2014-10-25T15:02,2014-10-13T18:40,2014-09-04T18:36,2014-09-03T18:49,2014-09-02T18:39,2014-09-01T18:43,2014-08-31T14:00,2014-08-28T18:39,2014-08-27T19:00,2014-08-26T16:51,2014-08-24T11:57,2014-08-21T18:31,2014-08-21T18:27,2014-08-03T15:03,2014-07-31T18:10,2014-07-23T18:08,2014-07-02T10:27,2014-06-25T15:27,2014-06-22T16:07,2014-06-13T15:25,2014-06-04T15:20,2014-03-06T18:39,2014-03-04T19:21,2014-03-01T15:53,2014-02-23T11:25,2014-01-22T15:39,2014-01-21T16:45,2014-01-20T18:19,2014-01-19T13:09,2014-01-18T13:50,2014-01-17T17:55,2014-01-15T15:51,2014-01-12T13:36,2014-01-09T18:05,2014-01-07T15:38,2014-01-06T18:52,2013-10-29T17:17,2013-10-29T15:25,2013-10-27T15:06,2013-10-23T18:24,2013-10-17T18:50,2013-10-16T15:58,2013-10-14T18:01,2013-10-13T14:10,2013-10-09T15:50,2013-10-08T16:24,2013-05-10T16:17
T: Peeler's Jacket, The
Z: Piano Box Version by Martin Fleischmann
H: Created 2013-02-19 /  Last Modified 2013-02-19
M: 4/4
L: 1/8
R: reel
K: Gmaj
|: "G"!3!G2!5!BG !1!D!3!G!5!B!3!G | "D"!2!F!1!GAB !4!c2!2!B!3!c | "G"!1!d!3!ggf !1!d2!2!e!4!g | "D"!3!f!1!d!3!c!1!A !5!BG!4!AF |
"G"!1!D2!3!GF !3!G!5!BAG | "D"!2!F!1!GAB !4!c2!2!B!3!c | "G"!1!d!3!ggf !1!d2!2!e!4!g | "D"!3!f!1!d!3!c!1!A "G"!2!B!1!GG2 :|
|:"G"!3!g{a}ggf !1!d2!2!ef | !4!g2!3!ga "D"!5!bg!4!a!2!f | "G"!3!g{a}ggf !1!d2!2!e!4!g | "D"!3!f!1!d!3!c!1!A "G"!2!B!1!GG2 |
"G"!3!g!2!g!3!gf !1!d2!2!ef | !4!g2!3!ga "D"!5!bgaf | "G"!3!gbag "D"!2!f!1!d!2!e!4!g | !3!f!1!d!3!c!1!A "G"!2!B!1!GG2:|


